X:1
T:The Tomb Is Empty Now
T:The Tomb Is Empty Now
T:Franklin Lycurgus Eiland
T:Eden Reeder Latta, 1892
T:Public Domain Courtesy of the Cyber Hymnal™
C:Franklin Lycurgus Eiland
Z:Public Domain
Z:Courtesy of the Cyber Hymnal™
%%score ( 1 2 ) ( 3 4 )
L:1/8
Q:1/4=110
M:6/8
K:A
V:1 treble 
V:2 treble 
V:3 bass 
V:4 bass 
V:1
"^Duet" E |"^With expression" A2 B c2 B | A3- A2"^Semi-Chorus" [Ae] | [Ae]2 [GB] [GB]2 [Ac] | %4
w: 1.~A-|dieu to ev- ery|fear! * The|tomb is emp- ty|
w: 2.~In|death He closed His|eyes! * The|tomb is emp- ty|
w: 3.~Be-|hold where He was|laid! * The|tomb is emp- ty|
w: 4.~In|Him our hopes we|place! * The|tomb is emp- ty|
 [GB]3- [GB]2"^Duet" E | A2 B c2 d | c3- c2"^Semi-Chorus" A | [GB]2 A [Ac]2 [EB] | [EA]3- [EA]2 || %9
w: now! * Ye|need not seek Him|here! * The|tomb is emp- ty|now! *|
w: now! * By|faith I see Him|rise! * The|tomb is emp- ty|now! *|
w: now! * Our|debt of sin He|paid! * The|tomb is emp- ty|now! *|
w: now! * And|we shall see His|face! * The|tomb is emp- ty|now! *|
 [CE] | c3- [Ec]2 [Ec] | B3- [EB]2 [EB] | c3- [Ec]2 [EB] | [FA]2 [FB] [FA]2 [DF] | %14
w: |||||
w: |||||
w: |||||
w: |||||
 [CE]3- [CE]2 [CE] | A3- [CA]2 [DB] | c3- [Ec]2 [Ed] | c3- [Ec]2 [EA] | [EB]2 [CA] [Ec]2 [EB] | %19
w: |||||
w: |||||
w: |||||
w: |||||
 [EA]3- [EA]2 |] %20
w: |
w: |
w: |
w: |
V:2
 x | x6 | x6 | x6 | x6 | x6 | x5 A | x2 A x3 | x5 || x | E2 E x3 | E2 E x3 | E2 E x3 | x6 | x6 | %15
 C2 C x3 | E2 E x3 | E2 E x3 | x6 | x5 |] %20
V:3
 A,, | C,2 E, A,2 E, | A,,3- A,,2 [A,C] | [E,C]2 [E,E] [E,E]2 [E,E] | [E,E]3- [E,E]2 E, | %5
w: |||||
 C,2 E, A,2 A, | A,3- A,2 [A,C] | [E,E]2 [E,C] [E,E]2 [E,D] | [A,,C]3- [A,,C]2 || [A,,A,] | %10
w: ||||He|
 [A,,A,]2 [A,,A,] [A,,A,]2 [A,,A,] | [E,G,]2 [E,G,] [E,G,]2 [E,G,] | A,2 A, A,2 [C,A,] | %13
w: reigns, He reigns in|Heav’n, In Heav’n to-|day, to- day; A|
 [D,A,]2 [D,A,] [D,A,]2 [D,A,] | [A,,A,]2 [A,,A,] [A,,A,]2 [A,,A,] | %15
w: crown up- on His|brow! His brow! The|
 [A,,E,]2 [A,,E,] [A,,E,]2 [E,G,] | A,2 A, A,2 A, | A,2 A, A,2 [C,A,] | %18
w: sha- dows flee, The|sha- dows flee a-|way! A- way! The|
 [E,G,]2 [E,A,] [E,A,]2 [E,D] | [A,,C]3- [A,,C]2 |] %20
w: tomb is emp- ty|now! *|
V:4
 x | x6 | x6 | x6 | x6 | x6 | x6 | x6 | x5 || x | x6 | x6 | A,2 A, A,2 x | x6 | x6 | x6 | %16
 A,2 A, A,2 A, | A,2 A, A,2 x | x6 | x5 |] %20

